src/assets/icons/cardHouse.svg

<svg width="50" height="50" viewBox="0 0 50 50" fill="none" xmlns="http://www.w3.org/2000/svg">
<path d="M38.2812 49.9964H11.7188C5.25703 49.9964 0 44.7394 0 38.2777V21.8449C0 18.213 1.72412 14.7297 4.61191 12.5271L17.8932 2.39729C22.0776 -0.794214 27.9224 -0.794214 32.1068 2.39729L36.3281 5.61409V3.12141C36.4313 0.530005 40.1321 0.531958 40.2344 3.12141V9.55803C40.2344 10.3005 39.8134 10.9787 39.1479 11.3083C38.4825 11.6378 37.6879 11.5615 37.0974 11.1115L29.7385 5.50383C26.9482 3.37571 23.0516 3.37571 20.262 5.50334L6.98076 15.6331C5.05566 17.1014 3.90625 19.4236 3.90625 21.8449V38.2777C3.90625 42.5855 7.41094 46.0902 11.7188 46.0902H38.2812C42.5891 46.0902 46.0938 42.5855 46.0938 38.2777V21.8449C46.0938 19.3939 44.9573 17.0638 43.0538 15.6118C42.1961 14.9576 42.0312 13.7321 42.6854 12.8744C43.3396 12.0167 44.5652 11.8518 45.4228 12.506C48.2889 14.6919 50 18.1831 50 21.8449V38.2777C50 44.7394 44.743 49.9964 38.2812 49.9964ZM21.0938 22.555C19.7454 22.555 18.6523 23.6481 18.6523 24.9964C18.7813 28.2357 23.4073 28.2332 23.5352 24.9964C23.5352 23.648 22.4421 22.555 21.0938 22.555ZM31.3477 24.9963C31.2187 28.2356 26.5927 28.2331 26.4648 24.9963C26.5938 21.7571 31.2198 21.7596 31.3477 24.9963ZM23.5352 32.8088C23.4062 36.0481 18.7802 36.0456 18.6523 32.8088C18.7813 29.5696 23.4073 29.5721 23.5352 32.8088ZM31.3477 32.8088C31.2187 36.0481 26.5927 36.0456 26.4648 32.8088C26.5938 29.5696 31.2198 29.5721 31.3477 32.8088Z" fill="#0061DF"/>
</svg>

<svg xmlns="http://www.w3.org/2000/svg" width="50" height="50" fill="none"><path fill="#0061DF" d="M38.281 49.996H11.72C5.257 49.996 0 44.74 0 38.278V21.845c0-3.632 1.724-7.115 4.612-9.318l13.281-10.13a11.747 11.747 0 0 1 14.214 0l4.221 3.217V3.121c.103-2.591 3.804-2.589 3.906 0v6.437a1.953 1.953 0 0 1-3.137 1.553l-7.359-5.607a7.832 7.832 0 0 0-9.476 0L6.981 15.633a7.857 7.857 0 0 0-3.075 6.21v16.434c0 4.308 3.505 7.812 7.813 7.812H38.28c4.308 0 7.813-3.505 7.813-7.812V21.845c0-2.451-1.137-4.781-3.04-6.233a1.953 1.953 0 1 1 2.369-3.106C48.289 14.692 50 18.183 50 21.845v16.433c0 6.461-5.257 11.718-11.719 11.718ZM21.094 22.555a2.441 2.441 0 0 0-2.442 2.441c.13 3.24 4.755 3.237 4.883 0a2.441 2.441 0 0 0-2.441-2.441Zm10.254 2.441c-.13 3.24-4.755 3.237-4.883 0 .129-3.239 4.755-3.236 4.883 0Zm-7.813 7.813c-.129 3.24-4.755 3.237-4.883 0 .13-3.24 4.755-3.237 4.883 0Zm7.813 0c-.13 3.24-4.755 3.237-4.883 0 .129-3.24 4.755-3.237 4.883 0Z"/></svg>
